X:26
T:Keys of Heaven
F:http://www.vwml.org/record/CJS2/10/726
S:Harriet Young at West Chinnock, Dec 29th 1905
Z:Transcribed by David Bawden, December 2014
M:6/8
L:1/4
K:Dmin
A/2[|AD/2DE/2|FE/2FA/2|GF/2EF/2|
w:O mad-am I will give to you the keys of Canter-
D/2(DD)B/2|AD/2DE|F3/2FA/2|GF/2EF/2|
w:bury  __And all the bells in Lon-don will ring and make us
D/2(DD)E/2|(FE/2)FE/2|(D3/2D)E/2|FE/2FG/2|
w:merry__ If you'll_ be my Joy_ and [ov-er-ly] sweet
(A3/2A)A/2|AD/2DE/2|F3/2EF/2|D3/2D|]
w:dear_ And walk along_ with me a-ny where_

